X:231
T: Garland of Roses
N: O'Farrell's Pocket Companion v.3 (Sky ed. p.113)
M: 6/8
R: jig
L: 1/8
Q: 320
K: D
A| AFA Add| f>ed dcB| AFA A>BA| Ad>F FEA|
AFA Add| f>ed Hafd| B>cd AdF| E>DE D2 :|
d/e/| f>ed FAd| f>ed FAd| fed cHac| Bed cAA|
dcd BGd| AFd AFD| d>cd BGd| AFd AFD|
FAd dfHa| ABc d2 :|

